!!!COM: Vivaldi, Antonio
!!!OTL: Concerto a violino solo, No. 4
!!!XEN: Violin Concerto No. 4
!!!OTP: L'Inverno
!!!OTA: The Four Seasons, Winter
!!!OPR: Il Cimento dell'armonia e dell'inventione
!!!XEN: The Contest of Harmony and Invention
!!!OPS: Opus 8
!!!ONM: No. 4
!!!OMV: Movement 2.
!!!YEC: Copyright 1996, Center for Computer Assisted Research in the Humanities
!!!YEM: Rights to all derivative electronic formats reserved.
!!!YEM: Refer to licensing agreement for important restrictions.
!!!OMD: Largo
**kern	**kern	**kern	**kern	**kern	**kern	**Bnum
*Icello	*Icello	*Iviola	*Ivioln	*Ivioln	*Ivioln	*Icemba
*Icemba	*solo	*	*	*	*	*
*ICstr	*ICstr	*ICstr	*ICstr	*ICstr	*ICstr	*ICklav
*ICklav	*	*	*	*	*	*
!cello	!cello (solo) 	!viola 	!violino 2	!violino 1	!violino principale	!continuo
!basso continuo	!	!	!	!	!	!
*clefF4	*clefF4	*clefC3	*clefG2	*clefG2	*clefG2	*
*k[b-e-a-]	*k[b-e-a-]	*k[b-e-a-]	*k[b-e-a-]	*k[b-e-a-]	*k[b-e-a-]	*k[b-e-a-]
*E-:	*E-:	*E-:	*E-:	*E-:	*E-:	*E-:
*M4/4	*M4/4	*M4/4	*M4/4	*M4/4	*M4/4	*M4/4
=1-	=1-	=1-	=1-	=1-	=1-	=1-
8E-\L	32E-\LLL	[1b-\	16b-\LL	16ee-\LL	8ee-\L	.
.	32e-\	.	.	.	.	.
.	32e-\	.	16ee-\	16gg\	.	.
.	32E-\JJJ	.	.	.	.	.
8E-\	32E-\LLL	.	16gg\	16bb-\	16bb-\L	.
.	32e-\	.	.	.	.	.
.	32e-\	.	16ee-\JJ	16gg\JJ	16aa-\JJ	.
.	32E-\JJJ	.	.	.	.	.
8E-\	32E-\LLL	.	16b-\LL	16ee-\LL	8gg\L	.
.	32e-\	.	.	.	.	.
*	*	*	*	*strophe	*	*
*	*	*	*	*^	*	*
*	*	*	*	*S/S	*S/M	*	*
.	32e-\	.	16ee-\	16gg\	16ee-\	.	.
.	32E-\JJJ	.	.	.	.	.	.
*	*	*	*	*S/fin	*S/fin	*	*
*	*	*	*	*v	*v	*	*
*	*	*	*	*S-	*	*
8E-\J	32E-\LLL	.	16gg\	16bb-\	16ff\L	.
.	32e-\	.	.	.	.	.
.	32e-\	.	16b-\JJ	16gg\JJ	16ee-\JJ	.
.	32E-\JJJ	.	.	.	.	.
8BB-/L	32BB-\LLL	.	16b-\LL	16dd\LL	8ff\L	.
.	32B-\	.	.	.	.	.
.	32B-\	.	16dd\	16ff\	.	.
.	32BB-\JJJ	.	.	.	.	.
8BB-/	32BB-\LLL	.	16ff\	16bb-\	8b-\J	.
.	32B-\	.	.	.	.	.
.	32B-\	.	16dd\JJ	16ff\JJ	.	.
.	32BB-\JJJ	.	.	.	.	.
8BB-/	32BB-\LLL	.	16b-\LL	16dd\LL	8r	.
.	32B-\	.	.	.	.	.
.	32B-\	.	16dd\	16ff\	.	.
.	32BB-\JJJ	.	.	.	.	.
8BB-/J	32BB-\LLL	.	16ff\	16bb-\	8b-\	.
.	32B-\	.	.	.	.	.
.	32B-\	.	16dd\JJ	16ff\JJ	.	.
.	32BB-\JJJ	.	.	.	.	.
=2	=2	=2	=2	=2	=2	=2
8BB-/L	32BB-\LLL	1b-_\	16b-\LL	16dd\LL	(16aa-\LL	.
.	32B-\	.	.	.	.	.
.	32B-\	.	16dd\	16ff\	16gg\)	.
.	32BB-\JJJ	.	.	.	.	.
8BB-/	32BB-\LLL	.	16ff\	16aa-\	(16ff\	.
.	32B-\	.	.	.	.	.
.	32B-\	.	16dd\JJ	16ff\JJ	16ee-\JJ)	.
.	32BB-\JJJ	.	.	.	.	.
8BB-/	32BB-\LLL	.	16b-\LL	16dd\LL	8dd\L	.
.	32B-\	.	.	.	.	.
.	32B-\	.	16dd\	16ff\	.	.
.	32BB-\JJJ	.	.	.	.	.
8BB-/J	32BB-\LLL	.	16ff\	16aa-\	8aa-\J	.
.	32B-\	.	.	.	.	.
.	32B-\	.	16dd\JJ	16ff\JJ	.	.
.	32BB-\JJJ	.	.	.	.	.
8E-\L	32E-\LLL	.	16b-\LL	16ee-\LL	8aa-T\L	.
.	32e-\	.	.	.	.	.
.	32e-\	.	16ee-\	16gg\	.	.
.	32E-\JJJ	.	.	.	.	.
8E-\	32E-\LLL	.	16gg\	16bb-\	8gg\J	.
.	32e-\	.	.	.	.	.
.	32e-\	.	16ee-\JJ	16gg\JJ	.	.
.	32E-\JJJ	.	.	.	.	.
8E-\	32E-\LLL	.	16b-\LL	16ee-\LL	8r	.
.	32e-\	.	.	.	.	.
.	32e-\	.	16ee-\	16gg\	.	.
.	32E-\JJJ	.	.	.	.	.
8E-\J	32E-\LLL	.	16gg\	16bb-\	8gg\	.
.	32e-\	.	.	.	.	.
.	32e-\	.	16b-\JJ	16gg\JJ	.	.
.	32E-\JJJ	.	.	.	.	.
=3	=3	=3	=3	=3	=3	=3
8D\L	32D\LLL	2.b-\]	16dd\LL	16ff\LL	8ff\L	.
.	32d\	.	.	.	.	.
.	32d\	.	16aa-\	16dd\	.	.
.	32D\JJJ	.	.	.	.	.
8D\	32D\LLL	.	16gg\	16bb-\	16gg\L	.
.	32d\	.	.	.	.	.
.	32d\	.	16ff\JJ	16aa-\JJ	16aa-\JJ	.
.	32D\JJJ	.	.	.	.	.
8D\	32D\LLL	.	16bb-\LL	16gg\LL	8bb-\L	.
.	32d\	.	.	.	.	.
.	32d\	.	16aa-\	16ff\	.	.
.	32D\JJJ	.	.	.	.	.
8D\J	32D\LLL	.	16gg\	16ee-\	16ccc\L	.
.	32d\	.	.	.	.	.
.	32d\	.	16ff\JJ	16dd\JJ	16ddd\JJ	.
.	32D\JJJ	.	.	.	.	.
8C/L	32C\LLL	.	16ee-\LL	16gg\LL	8ee-\L	.
.	32c\	.	.	.	.	.
.	32c\	.	16gg\	16cc\	.	.
.	32C\JJJ	.	.	.	.	.
8C/	32C\LLL	.	16ff\	16aa-\	16ff\L	.
.	32c\	.	.	.	.	.
.	32c\	.	16ee-\JJ	16gg\JJ	16gg\JJ	.
.	32C\JJJ	.	.	.	.	.
8C/	32C\LLL	[4a-\	16aa-\LL	16ff\LL	8aa-\L	.
.	32c\	.	.	.	.	.
.	32c\	.	16gg\	16ee-\	.	.
.	32C\JJJ	.	.	.	.	.
8C/J	32C\LLL	.	16ff\	16dd\	16bb-\L	.
.	32c\	.	.	.	.	.
.	32c\	.	16ee-\JJ	16cc\JJ	16ccc\JJ	.
.	32C\JJJ	.	.	.	.	.
=4	=4	=4	=4	=4	=4	=4
8BB-/L	32BB-\LLL	4a-\]	16dd\LL	16ff\LL	8dd\L	.
.	32B-\	.	.	.	.	.
.	32B-\	.	16ff\	16b-\	.	.
.	32BB-\JJJ	.	.	.	.	.
8BB-/	32BB-\LLL	.	16ee-\	16gg\	16ee-\L	.
.	32B-\	.	.	.	.	.
.	32B-\	.	16dd\JJ	16ff\JJ	16ff\JJ	.
.	32BB-\JJJ	.	.	.	.	.
8BB-/	32BB-\LLL	2g\	16gg\LL	16ee-\LL	8gg\L	.
.	32B-\	.	.	.	.	.
.	32B-\	.	16ff\	16dd\	.	.
.	32BB-\JJJ	.	.	.	.	.
8BB-/J	32BB-\LLL	.	16ee-\	16cc\	16aa-\L	.
.	32B-\	.	.	.	.	.
.	32B-\	.	16dd\JJ	16b-\JJ	16bb-\JJ	.
.	32BB-\JJJ	.	.	.	.	.
8AA-/L	32AA-\LLL	.	16cc\LL	16ee-\LL	8cc\L	.
.	32A-\	.	.	.	.	.
.	32A-\	.	16ee-\	16a-\	.	.
.	32AA-\JJJ	.	.	.	.	.
8AA-/	32AA-\LLL	.	16dd\	16ff\	16dd\L	.
.	32A-\	.	.	.	.	.
.	32A-\	.	16cc\JJ	16ee-\JJ	16ee-\JJ	.
.	32AA-\JJJ	.	.	.	.	.
8AAn/	32AAn\LLL	4f\	16ff\LL	16dd\LL	8ff\L	.
.	32An\	.	.	.	.	.
.	32A\	.	16ee-\	16cc\	.	.
.	32AA\JJJ	.	.	.	.	.
8AA/J	32AA\LLL	.	16dd\	16b-\	16gg\L	.
.	32A\	.	.	.	.	.
.	32A\	.	16cc\JJ	16an\JJ	16ee-\JJ	.
.	32AA\JJJ	.	.	.	.	.
=5	=5	=5	=5	=5	=5	=5
8BB-/L	32BB-\LLL	[2f\	16b-\LL	16dd\LL	[4dd\	.
.	32B-\	.	.	.	.	.
.	32B-\	.	16dd\	16ff\	.	.
.	32BB-\JJJ	.	.	.	.	.
8BB-/	32BB-\LLL	.	16ff\	16bb-\	.	.
.	32B-\	.	.	.	.	.
.	32B-\	.	16dd\JJ	16ff\JJ	.	.
.	32BB-\JJJ	.	.	.	.	.
8BB-/	32BB-\LLL	.	16b-\LL	16dd\LL	16dd\LL]	.
.	32B-\	.	.	.	.	.
.	32B-\	.	16dd\	16ff\	(16b-\	.
.	32BB-\JJJ	.	.	.	.	.
8BB-/J	32BB-\LLL	.	16ff\	16bb-\	16an\	.
.	32B-\	.	.	.	.	.
.	32B-\	.	16dd\JJ	16ff\JJ	16b-\JJ)	.
.	32BB-\JJJ	.	.	.	.	.
8BB-/L	32BB-\LLL	4f\]	16b-\LL	16dd\LL	[4ff\	.
.	32B-\	.	.	.	.	.
.	32B-\	.	16dd\	16ff\	.	.
.	32BB-\JJJ	.	.	.	.	.
8BB-/	32BB-\LLL	.	16ff\	16bb-\	.	.
.	32B-\	.	.	.	.	.
.	32B-\	.	16dd\JJ	16ff\JJ	.	.
.	32BB-\JJJ	.	.	.	.	.
8BB-/	32BB-\LLL	4b-\	16b-\LL	16dd\LL	16ff\LL]	.
.	32B-\	.	.	.	.	.
.	32B-\	.	16dd\	16ff\	(16b-\	.
.	32BB-\JJJ	.	.	.	.	.
8BB-/J	32BB-\LLL	.	16ff\	16bb-\	16a\	.
.	32B-\	.	.	.	.	.
.	32B-\	.	16dd\JJ	16ff\JJ	16b-\JJ)	.
.	32BB-\JJJ	.	.	.	.	.
=6	=6	=6	=6	=6	=6	=6
8E-\L	32E-\LLL	2b-\	16b-\LL	16ee-\LL	[4gg\	.
.	32e-\	.	.	.	.	.
.	32e-\	.	16ee-\	16gg\	.	.
.	32E-\JJJ	.	.	.	.	.
8E-\	32E-\LLL	.	16gg\	16bb-\	.	.
.	32e-\	.	.	.	.	.
.	32e-\	.	16ee-\JJ	16gg\JJ	.	.
.	32E-\JJJ	.	.	.	.	.
8E-\	32E-\LLL	.	16b-\LL	16ee-\LL	16gg\LL]	.
.	32e-\	.	.	.	.	.
.	32e-\	.	16ee-\	16gg\	(16b-\	.
.	32E-\JJJ	.	.	.	.	.
8E-\J	32E-\LLL	.	16gg\	16bb-\	16an\	.
.	32e-\	.	.	.	.	.
.	32e-\	.	16ee-\JJ	16gg\JJ	16b-\JJ)	.
.	32E-\JJJ	.	.	.	.	.
8E-\L	32E-\LLL	4.cc\	16cc\LL	16ff\LL	[4aan\	.
.	32e-\	.	.	.	.	.
.	32e-\	.	16ff\	16aan\	.	.
.	32E-\JJJ	.	.	.	.	.
8E-\	32E-\LLL	.	16aan\	16ccc\	.	.
.	32e-\	.	.	.	.	.
.	32e-\	.	16ff\JJ	16aa\JJ	.	.
.	32E-\JJJ	.	.	.	.	.
8E-\	32E-\LLL	.	16cc\LL	16ff\LL	16aa\LL]	.
.	32e-\	.	.	.	.	.
.	32e-\	.	16ff\	16aa\	(16ff\	.
.	32E-\JJJ	.	.	.	.	.
8E-\J	32E-\LLL	8an\	16aa\	16ccc\	16ee-\	.
.	32e-\	.	.	.	.	.
*	*	*	*	*strophe	*	*
*	*	*	*	*^	*	*
*	*	*	*	*S/S	*S/M	*	*
.	32e-\	.	16cc\JJ	16aa\JJ	16ee-\JJ	16ff\JJ)	.
.	32E-\JJJ	.	.	.	.	.	.
*	*	*	*	*S/fin	*S/fin	*	*
*	*	*	*	*v	*v	*	*
*	*	*	*	*S-	*	*
=7	=7	=7	=7	=7	=7	=7
8BB-/L	32BB-\LLL	[1f\	16b-\LL	16dd\LL	8bb-\L	.
.	32B-\	.	.	.	.	.
.	32B-\	.	16dd\	16ff\	.	.
.	32BB-\JJJ	.	.	.	.	.
8BB-/	32BB-\LLL	.	16ff\	16bb-\	8b-\J	.
.	32B-\	.	.	.	.	.
.	32B-\	.	16dd\JJ	16ff\JJ	.	.
.	32BB-\JJJ	.	.	.	.	.
8BB-/	32BB-\LLL	.	16b-\LL	16dd\LL	8r	.
.	32B-\	.	.	.	.	.
.	32B-\	.	16dd\	16ff\	.	.
.	32BB-\JJJ	.	.	.	.	.
8BB-/J	32BB-\LLL	.	16ff\	16bb-\	8bb-\	.
.	32B-\	.	.	.	.	.
*	*	*	*	*strophe	*	*
*	*	*	*	*^	*	*
*	*	*	*	*S/S	*S/M	*	*
.	32B-\	.	16b-\JJ	16ff\JJ	16dd\JJ	.	.
.	32BB-\JJJ	.	.	.	.	.	.
*	*	*	*	*S/fin	*S/fin	*	*
*	*	*	*	*v	*v	*	*
*	*	*	*	*S-	*	*
8FF/L	32FF/LLL	.	16b-\LL	16cc\LL	(16bb-\LL	.
.	32F/	.	.	.	.	.
.	32F/	.	16cc\	16ff\	16aa-\)	.
.	32FF/JJJ	.	.	.	.	.
8FF/	32FF/LLL	.	16ff\	16bb-\	(16gg\	.
.	32F/	.	.	.	.	.
.	32F/	.	16cc\JJ	16ff\JJ	16ff\JJ)	.
.	32FF/JJJ	.	.	.	.	.
8FF/	32FF/LLL	.	16b-\LL	16cc\LL	(16ee-\LL	.
.	32F/	.	.	.	.	.
.	32F/	.	16cc\	16ff\	16dd\)	.
.	32FF/JJJ	.	.	.	.	.
8FF/J	32FF/LLL	.	16ff\	16bb-\	(16cc\	.
.	32F/	.	.	.	.	.
.	32F/	.	16cc\JJ	16ff\JJ	16b-\JJ)	.
.	32FF/JJJ	.	.	.	.	.
=8	=8	=8	=8	=8	=8	=8
8FF/L	32FF/LLL	1f_\	16an\LL	16cc\LL	4.ccT\	.
.	32F/	.	.	.	.	.
.	32F/	.	16cc\	16ff\	.	.
.	32FF/JJJ	.	.	.	.	.
8FF/	32FF/LLL	.	16ff\	16aan\	.	.
.	32F/	.	.	.	.	.
.	32F/	.	16cc\JJ	16ff\JJ	.	.
.	32FF/JJJ	.	.	.	.	.
8FF/	32FF/LLL	.	16a\LL	16cc\LL	.	.
.	32F/	.	.	.	.	.
.	32F/	.	16cc\	16ff\	.	.
.	32FF/JJJ	.	.	.	.	.
8FF/J	32FF/LLL	.	16ff\	16aa\	8b-\	.
.	32F/	.	.	.	.	.
.	32F/	.	16a\JJ	16cc\JJ	.	.
.	32FF/JJJ	.	.	.	.	.
8BB-/L	32BB-\LLL	.	16f/LL	16b-\LL	4b-\	.
.	32B-\	.	.	.	.	.
.	32B-\	.	16b-/	16dd\	.	.
.	32BB-\JJJ	.	.	.	.	.
8BB-/	32BB-\LLL	.	16dd/	16ff\	.	.
.	32B-\	.	.	.	.	.
.	32B-\	.	16b-/JJ	16dd\JJ	.	.
.	32BB-\JJJ	.	.	.	.	.
8BB-/	32BB-\LLL	.	16f/LL	16b-\LL	4r	.
.	32B-\	.	.	.	.	.
.	32B-\	.	16b-/	16dd\	.	.
.	32BB-\JJJ	.	.	.	.	.
8BB-/J	32BB-\LLL	.	16dd/	16ff\	.	.
.	32B-\	.	.	.	.	.
.	32B-\	.	16b-/JJ	16dd\JJ	.	.
.	32BB-\JJJ	.	.	.	.	.
=9	=9	=9	=9	=9	=9	=9
8BB-/L	32BB-\LLL	1f_\	16f/LL	16b-\LL	8b-\L	.
.	32B-\	.	.	.	.	.
.	32B-\	.	16b-/	16dd\	.	.
.	32BB-\JJJ	.	.	.	.	.
8BB-/	32BB-\LLL	.	16dd/	16ff\	16ff\L	.
.	32B-\	.	.	.	.	.
.	32B-\	.	16b-/JJ	16dd\JJ	16ee-\JJ	.
.	32BB-\JJJ	.	.	.	.	.
8BB-/	32BB-\LLL	.	16f/LL	16b-\LL	8dd\L	.
.	32B-\	.	.	.	.	.
.	32B-\	.	16b-/	16dd\	.	.
.	32BB-\JJJ	.	.	.	.	.
8BB-/J	32BB-\LLL	.	16dd/	16ff\	16cc\L	.
.	32B-\	.	.	.	.	.
.	32B-\	.	16f/JJ	16b-\JJ	16b-\JJ	.
.	32BB-\JJJ	.	.	.	.	.
8FF/L	32FF/LLL	.	16f/LL	16an\LL	8cc/L	.
.	32F/	.	.	.	.	.
.	32F/	.	16an/	16cc\	.	.
.	32FF/JJJ	.	.	.	.	.
8FF/	32FF/LLL	.	16cc/	16ff\	8f/J	.
.	32F/	.	.	.	.	.
.	32F/	.	16a/JJ	16cc\JJ	.	.
.	32FF/JJJ	.	.	.	.	.
8FF/	32FF/LLL	.	16f/LL	16a\LL	8r	.
.	32F/	.	.	.	.	.
.	32F/	.	16a/	16cc\	.	.
.	32FF/JJJ	.	.	.	.	.
8FF/J	32FF/LLL	.	16cc/	16ff\	8f/	.
.	32F/	.	.	.	.	.
.	32F/	.	16a/JJ	16cc\JJ	.	.
.	32FF/JJJ	.	.	.	.	.
=10	=10	=10	=10	=10	=10	=10
8FF/L	32FF/LLL	1f_\	16f/LL	16an\LL	16ee-\LL	.
.	32F/	.	.	.	.	.
.	32F/	.	16an/	16cc\	16dd\	.
.	32FF/JJJ	.	.	.	.	.
8FF/	32FF/LLL	.	16cc/	16ee-\	16cc\	.
.	32F/	.	.	.	.	.
.	32F/	.	16a/JJ	16cc\JJ	16b-\JJ	.
.	32FF/JJJ	.	.	.	.	.
8FF/	32FF/LLL	.	16f/LL	16a\LL	8an\L	.
.	32F/	.	.	.	.	.
.	32F/	.	16a/	16cc\	.	.
.	32FF/JJJ	.	.	.	.	.
8FF/J	32FF/LLL	.	16cc/	16ee-\	8ee-\J	.
.	32F/	.	.	.	.	.
.	32F/	.	16a/JJ	16cc\JJ	.	.
.	32FF/JJJ	.	.	.	.	.
8BB-/L	32BB-\LLL	.	16b-\LL	16dd\LL	8ee-T\L	.
.	32B-\	.	.	.	.	.
.	32B-\	.	16dd\	16ff\	.	.
.	32BB-\JJJ	.	.	.	.	.
8BB-/	32BB-\LLL	.	16ff\	16bb-\	8dd\J	.
.	32B-\	.	.	.	.	.
.	32B-\	.	16dd\JJ	16ff\JJ	.	.
.	32BB-\JJJ	.	.	.	.	.
8BB-/	32BB-\LLL	.	16b-\LL	16dd\LL	8r	.
.	32B-\	.	.	.	.	.
.	32B-\	.	16dd\	16ff\	.	.
.	32BB-\JJJ	.	.	.	.	.
8BB-/J	32BB-\LLL	.	16ff\	16bb-\	8b-\	.
.	32B-\	.	.	.	.	.
.	32B-\	.	16dd\JJ	16ff\JJ	.	.
.	32BB-\JJJ	.	.	.	.	.
=11	=11	=11	=11	=11	=11	=11
8BB-/L	32BB-\LLL	4f\]	16b-\LL	16dd\LL	16aa-\LL	.
.	32B-\	.	.	.	.	.
.	32B-\	.	16dd\	16ff\	16gg\	.
.	32BB-\JJJ	.	.	.	.	.
8BB-/	32BB-\LLL	.	16ff\	16aa-\	16ff\	.
.	32B-\	.	.	.	.	.
.	32B-\	.	16dd\JJ	16ff\JJ	16ee-\JJ	.
.	32BB-\JJJ	.	.	.	.	.
8BB-/	32BB-\LLL	4b-\	16b-\LL	16dd\LL	8dd\L	.
.	32B-\	.	.	.	.	.
.	32B-\	.	16dd\	16ff\	.	.
.	32BB-\JJJ	.	.	.	.	.
8BB-/J	32BB-\LLL	.	16ff\	16aa-\	8aa-\J	.
.	32B-\	.	.	.	.	.
.	32B-\	.	16dd\JJ	16ff\JJ	.	.
.	32BB-\JJJ	.	.	.	.	.
8E-\L	32E-\LLL	2b-\	16b-\LL	16ee-\LL	8aa-T\L	.
.	32e-\	.	.	.	.	.
.	32e-\	.	16ee-\	16gg\	.	.
.	32E-\JJJ	.	.	.	.	.
8E-\	32E-\LLL	.	16gg\	16bb-\	8gg\J	.
.	32e-\	.	.	.	.	.
.	32e-\	.	16ee-\JJ	16gg\JJ	.	.
.	32E-\JJJ	.	.	.	.	.
8E-\	32E-\LLL	.	16b-\LL	16ee-\LL	8r	.
.	32e-\	.	.	.	.	.
.	32e-\	.	16ee-\	16gg\	.	.
.	32E-\JJJ	.	.	.	.	.
8E-\J	32E-\LLL	.	16gg\	16bb-\	8gg\	.
.	32e-\	.	.	.	.	.
.	32e-\	.	16ee-\JJ	16gg\JJ	.	.
.	32E-\JJJ	.	.	.	.	.
=12	=12	=12	=12	=12	=12	=12
8AA-/L	32AA-\LLL	2cc\	16cc\LL	16ee-\LL	8cc\L	.
.	32A-\	.	.	.	.	.
.	32A-\	.	16ee-\	16aa-\	.	.
.	32AA-\JJJ	.	.	.	.	.
8AA-/	32AA-\LLL	.	16cc\	16ee-\	16dd\L	.
.	32A-\	.	.	.	.	.
.	32A-\	.	16ee-\JJ	16aa-\JJ	16ee-\JJ	.
.	32AA-\JJJ	.	.	.	.	.
8AA-/	32AA-\LLL	.	16cc\LL	16ff\LL	8ff\L	.
.	32A-\	.	.	.	.	.
.	32A-\	.	16ff\	16aa-\	.	.
.	32AA-\JJJ	.	.	.	.	.
8AA-/J	32AA-\LLL	.	16cc\	16ff\	16gg\L	.
.	32A-\	.	.	.	.	.
.	32A-\	.	16ff\JJ	16aa-\JJ	16aa-\JJ	.
.	32AA-\JJJ	.	.	.	.	.
8BB-/L	32BB-\LLL	2dd\	16dd\LL	16ff\LL	8dd\L	.
.	32B-\	.	.	.	.	.
.	32B-\	.	16ff\	16bb-\	.	.
.	32BB-\JJJ	.	.	.	.	.
8BB-/	32BB-\LLL	.	16dd\	16ff\	16ee-\L	.
.	32B-\	.	.	.	.	.
.	32B-\	.	16ff\JJ	16bb-\JJ	16ff\JJ	.
.	32BB-\JJJ	.	.	.	.	.
8BB-/	32BB-\LLL	.	16dd\LL	16gg\LL	8gg\L	.
.	32B-\	.	.	.	.	.
.	32B-\	.	16gg\	16bb-\	.	.
.	32BB-\JJJ	.	.	.	.	.
8BB-/J	32BB-\LLL	.	16dd\	16gg\	16aa-\L	.
.	32B-\	.	.	.	.	.
.	32B-\	.	16gg\JJ	16bb-\JJ	16bb-\JJ	.
.	32BB-\JJJ	.	.	.	.	.
=13	=13	=13	=13	=13	=13	=13
8C/L	32C\LLL	2e-\	16ee-\LL	16gg\LL	8ee-\L	.
.	32c\	.	.	.	.	.
.	32c\	.	16gg\	16ccc\	.	.
.	32C\JJJ	.	.	.	.	.
8C/	32C\LLL	.	16ee-\	16gg\	16ff\L	.
.	32c\	.	.	.	.	.
.	32c\	.	16gg\JJ	16ccc\JJ	16gg\JJ	.
.	32C\JJJ	.	.	.	.	.
8C/	32C\LLL	.	16ee-\LL	16aa-\LL	8aa-\L	.
.	32c\	.	.	.	.	.
.	32c\	.	16aa-\	16ccc\	.	.
.	32C\JJJ	.	.	.	.	.
8C/J	32C\LLL	.	16ee-\	16aa-\	16bb-\L	.
.	32c\	.	.	.	.	.
.	32c\	.	16aa-\JJ	16ccc\JJ	16ccc\JJ	.
.	32C\JJJ	.	.	.	.	.
8BB-/L	32BB-\LLL	2f\	16b-\LL	16dd\LL	4dd\	.
.	32B-\	.	.	.	.	.
.	32B-\	.	16dd\	16ff\	.	.
.	32BB-\JJJ	.	.	.	.	.
8BB-/	32BB-\LLL	.	16ff\	16bb-\	.	.
.	32B-\	.	.	.	.	.
.	32B-\	.	16dd\JJ	16ff\JJ	.	.
.	32BB-\JJJ	.	.	.	.	.
8BB-/	32BB-\LLL	.	16b-\LL	16dd\LL	8r	.
.	32B-\	.	.	.	.	.
.	32B-\	.	16dd\	16ff\	.	.
.	32BB-\JJJ	.	.	.	.	.
8BB-/J	32BB-\LLL	.	16ff\	16bb-\	16dd\LL	.
.	32B-\	.	.	.	.	.
.	32B-\	.	16dd\JJ	16ff\JJ	16ee-\JJ	.
.	32BB-\JJJ	.	.	.	.	.
=14	=14	=14	=14	=14	=14	=14
8BB-/L	32BB-\LLL	[1B-/	16b-\LL	16dd\LL	16ff\LL	.
.	32B-\	.	.	.	.	.
.	32B-\	.	16dd\	16ff\	(16dd\	.
.	32BB-\JJJ	.	.	.	.	.
8BB-/	32BB-\LLL	.	16ff\	16bb-\	16cc\	.
.	32B-\	.	.	.	.	.
.	32B-\	.	16dd\JJ	16ff\JJ	16b-\JJ)	.
.	32BB-\JJJ	.	.	.	.	.
8BB-/	32BB-\LLL	.	16b-\LL	16ee-\LL	(16gg\LL	.
.	32B-\	.	.	.	.	.
.	32B-\	.	16ee-\	16gg\	16aa-\	.
.	32BB-\JJJ	.	.	.	.	.
8BB-/J	32BB-\LLL	.	16gg\	16bb-\	16bb-\)	.
.	32B-\	.	.	.	.	.
.	32B-\	.	16b-\JJ	16ee-\JJ	16gg\JJ	.
.	32BB-\JJJ	.	.	.	.	.
8BB-/L	32BB-\LLL	.	16b-\LL	16dd\LL	8ff\L	.
.	32B-\	.	.	.	.	.
.	32B-\	.	16dd\	16ff\	.	.
.	32BB-\JJJ	.	.	.	.	.
8BB-/	32BB-\LLL	.	16ff\	16bb-\	8b-\J	.
.	32B-\	.	.	.	.	.
.	32B-\	.	16dd\JJ	16ff\JJ	.	.
.	32BB-\JJJ	.	.	.	.	.
8BB-/	32BB-\LLL	.	16b-\LL	16dd\LL	8r	.
.	32B-\	.	.	.	.	.
.	32B-\	.	16dd\	16ff\	.	.
.	32BB-\JJJ	.	.	.	.	.
8BB-/J	32BB-\LLL	.	16ff\	16bb-\	16dd\LL	.
.	32B-\	.	.	.	.	.
.	32B-\	.	16dd\JJ	16ff\JJ	16ee-\JJ	.
.	32BB-\JJJ	.	.	.	.	.
=15	=15	=15	=15	=15	=15	=15
8BB-/L	32BB-\LLL	1B-_/	16b-\LL	16dd\LL	16ff\LL	.
.	32B-\	.	.	.	.	.
.	32B-\	.	16dd\	16ff\	(16dd\	.
.	32BB-\JJJ	.	.	.	.	.
8BB-/	32BB-\LLL	.	16ff\	16bb-\	16cc\	.
.	32B-\	.	.	.	.	.
.	32B-\	.	16dd\JJ	16ff\JJ	16b-\JJ)	.
.	32BB-\JJJ	.	.	.	.	.
8BB-/	32BB-\LLL	.	16b-\LL	16ee-\LL	(16gg\LL	.
.	32B-\	.	.	.	.	.
.	32B-\	.	16ee-\	16gg\	16aa-\	.
.	32BB-\JJJ	.	.	.	.	.
8BB-/J	32BB-\LLL	.	16gg\	16bb-\	16bb-\)	.
.	32B-\	.	.	.	.	.
.	32B-\	.	16b-\JJ	16ee-\JJ	16gg\JJ	.
.	32BB-\JJJ	.	.	.	.	.
8BB-/L	32BB-\LLL	.	16b-\LL	16dd\LL	8ff\L	.
.	32B-\	.	.	.	.	.
.	32B-\	.	16dd\	16ff\	.	.
.	32BB-\JJJ	.	.	.	.	.
8BB-/	32BB-\LLL	.	16ff\	16bb-\	8b-\J	.
.	32B-\	.	.	.	.	.
.	32B-\	.	16dd\JJ	16ff\JJ	.	.
.	32BB-\JJJ	.	.	.	.	.
8BB-/	32BB-\LLL	.	16b-\LL	16dd\LL	8r	.
.	32B-\	.	.	.	.	.
.	32B-\	.	16dd\	16ff\	.	.
.	32BB-\JJJ	.	.	.	.	.
8BB-/J	32BB-\LLL	.	16ff\	16bb-\	16ff\LL	.
.	32B-\	.	.	.	.	.
.	32B-\	.	16b-\JJ	16ff\JJ	16bb-\JJ	.
.	32BB-\JJJ	.	.	.	.	.
=16	=16	=16	=16	=16	=16	=16
8EE-/L	32EE-/LLL	1B-_/	16b-\LL	16ee-\LL	8gg\L	.
.	32E-/	.	.	.	.	.
.	32E-/	.	16ee-\	16gg\	.	.
.	32EE-/JJJ	.	.	.	.	.
8EE-/	32EE-/LLL	.	16gg\	16bb-\	16ff\L	.
.	32E-/	.	.	.	.	.
.	32E-/	.	16b-\JJ	16ee-\JJ	16ee-\JJ	.
.	32EE-/JJJ	.	.	.	.	.
8BB-/	32BB-\LLL	.	16b-\LL	16dd\LL	8.ddt\L	.
.	32B-\	.	.	.	.	.
.	32B-\	.	16dd\	16ff\	.	.
.	32BB-\JJJ	.	.	.	.	.
8BB-/J	32BB-\LLL	.	16ff\	16bb-\	.	.
.	32B-\	.	.	.	.	.
*	*	*	*strophe	*	*	*
*	*	*	*^	*	*	*
*	*	*	*S/S	*S/M	*	*	*
.	32B-\	.	16dd\JJ	16b-\JJ	16ff\JJ	16ee-\Jk	.
.	32BB-\JJJ	.	.	.	.	.	.
*	*	*	*S/fin	*S/fin	*	*	*
*	*	*	*v	*v	*	*	*
*	*	*	*S-	*	*	*
8EE-/L	32EE-/LLL	.	16b-\LL	16ee-\LL	[2ee-T\	.
.	32E-/	.	.	.	.	.
.	32E-/	.	16ee-\	16gg\	.	.
.	32EE-/JJJ	.	.	.	.	.
8EE-/	32EE-/LLL	.	16gg\	16bb-\	.	.
.	32E-/	.	.	.	.	.
.	32E-/	.	16ee-\JJ	16gg\JJ	.	.
.	32EE-/JJJ	.	.	.	.	.
8EE-/	32EE-/LLL	.	16b-\LL	16ee-\LL	.	.
.	32E-/	.	.	.	.	.
.	32E-/	.	16ee-\	16gg\	.	.
.	32EE-/JJJ	.	.	.	.	.
8EE-/J	32EE-/LLL	.	16gg\	16bb-\	.	.
.	32E-/	.	.	.	.	.
.	32E-/	.	16b-\JJ	16ee-\JJ	.	.
.	32EE-/JJJ	.	.	.	.	.
=17	=17	=17	=17	=17	=17	=17
8EE-/L	32EE-/LLL	1B-_/	16g\LL	16b-\LL	1ee-_\	.
.	32E-/	.	.	.	.	.
.	32E-/	.	16b-\	16ee-\	.	.
.	32EE-/JJJ	.	.	.	.	.
8EE-/	32EE-/LLL	.	16ee-\	16gg\	.	.
.	32E-/	.	.	.	.	.
.	32E-/	.	16b-\JJ	16ee-\JJ	.	.
.	32EE-/JJJ	.	.	.	.	.
8EE-/	32EE-/LLL	.	16g\LL	16b-\LL	.	.
.	32E-/	.	.	.	.	.
.	32E-/	.	16b-\	16ee-\	.	.
.	32EE-/JJJ	.	.	.	.	.
8EE-/J	32EE-/LLL	.	16ee-\	16gg\	.	.
.	32E-/	.	.	.	.	.
.	32E-/	.	16b-\JJ	16ee-\JJ	.	.
.	32EE-/JJJ	.	.	.	.	.
8EE-/L	32EE-/LLL	.	16e-/LL	16g\LL	.	.
.	32E-/	.	.	.	.	.
.	32E-/	.	16g/	16b-\	.	.
.	32EE-/JJJ	.	.	.	.	.
8EE-/	32EE-/LLL	.	16b-/	16ee-\	.	.
.	32E-/	.	.	.	.	.
.	32E-/	.	16g/JJ	16b-\JJ	.	.
.	32EE-/JJJ	.	.	.	.	.
8EE-/	32EE-/LLL	.	16e-/LL	16g\LL	.	.
.	32E-/	.	.	.	.	.
.	32E-/	.	16g/	16b-\	.	.
.	32EE-/JJJ	.	.	.	.	.
8EE-/J	32EE-/LLL	.	16b-/	16ee-\	.	.
.	32E-/	.	.	.	.	.
.	32E-/	.	16g/JJ	16b-\JJ	.	.
.	32EE-/JJJ	.	.	.	.	.
=18	=18	=18	=18	=18	=18	=18
1EE-;/	1EE-;/	1B-;/]	1e-;/	1g;/	1ee-;\]	.
==|!	==|!	==|!	==|!	==|!	==|!	==|!
*-	*-	*-	*-	*-	*-	*-
!!!CDT: 1678/3/4/-1741/7/28
!!!OCY: Italia
!!!ODE: Count Wenzeslaus von Morzin of Bohemia; Count Wenceslas of Morzin
!!!ODT: 1725///
!!!OPC: Venezia; Venice
!!!AGN: concerto
!!!AST: baroque
!!!AMT: simple quadruple
!!!PPR: Michel-Charles Le Ce`ne
!!!PC#: Le Cene No. 520
!!!PDT: 1725///
!!!PPP: Amsterdam
!!!SCT: RV 297
!!!SMA1: The cooperation of the following libraries is gratefully acknowledged:
!!!SMA2: Saechsische Landesbibliothek, Dresden; Biblioteca Nazionale
!!!SMA3: Universitaria, Turin; Henry Watson Music Library, Manchester.
!!!YOR: New York: Dover Publications, Inc. 1995
!!!AIN: cello cemba viola violn
!!!EEV: 1.0
!!!RDT: 1994/4/8/
!!!YER: 1996/10/31/
!!!YEP: Center for Computer Assisted Research in the Humanities
!!!YEN: United States of America
!!!EFL: 2/3
!!!ENC: Edmund Correia, Jr.
!!!EED: Eleanor Selfridge-Field
